X: 60
T: The Sacred Stones Come to See You
C: Teton Sioux band 1911-1914
N: Derived from sioux060.krn
O: South Dakota, U.S.A.
N: Teton Sioux Music by Frances Densmore, 1918
Z: transcribed to **kern format by Craig Sapp
L: 1/8
M: 2/4
Q: 1/4=58
K: Eb clef=bass
%%linebreak <none>
C> CC2 [I:setbarnb 1]||  
[M:3/4](C4B,3/) C/ | 
B,2B,2A,3/ B,/ ||  
[M:2/4]A,4- | 
A, F,F,2 | 
A,> B,A,2 ||  
[M:3/4]A,4-A, F,3// A,// | 
A,2A,2-A, F, ||  
[M:2/4]E,> F,E,2- | 
E, C,C,2 | 
E,> G,G,2 ||  
[M:3/4]F,2-F,> E, E,3/ F,/ | 
E,2E,2E, C, ||  
[M:2/4]C,2C,3/ C,/ | 
C,4- | 
C,3C,/ C,/ | 
C> EC2 | 
C2B,3/ C/ | 
B,2A, B,/ B,/ | 
A,4- | 
A, F, F,3/ B,/ | 
A,> B,A,2 ||  
[M:3/4]A,4-A, F,3// A,// | 
A,2A,3F, ||  
[M:2/4]E,2E,2- | 
E, C,C,2 | 
E,> F,F,2 ||  
[M:3/4]F,2-F,> E, E,3/ F,/ | 
E,2E,2-E, C, ||  
[M:2/4]C,2C,3/ C,/ | 
C,4- | 
C,4 |]  



